X:1
T:The Lancer's Quadrilles
T:Spagnoletti
T:The Countess of Farnham's Waltz
T:by Mutopia - Scritto con MuseScore, un software libero e gratuito: http://musescore.org/it
C:Spagnoletti
Z:by Mutopia - Scritto con MuseScore, un software libero e gratuito: http://musescore.org/it
%%score { 1 | 2 }
L:1/8
Q:3/8=60
M:3/8
K:Bb
V:1 treble nm="Piano" snm="Pno."
V:2 bass 
V:1
 F | FBB | Bd g/>f/ | cc d/c/ | BF (d | c)c =e/>d/ | cc f/>c/ | (AA/)c/B/A/ | F2 :: F | (ec) c | %11
 dB B |{/c} BAB | cf F | ec c | d>Bg/>f/ | =e>bg/e/ | f/=e/_e/c/A/F/ | (FB)B | (Bd) g/>f/ | %20
 cc d/>c/ | BFF | G/A/B/c/d/e/ | (=ef) d | fec | B2!fine! ::[K:Eb] [GB]/>[GB]/ | [GB][Ac][Bd] | %28
 [ce][Bd][Ac] | [GB][Ac][=EG] | ([=EG][FA]) [Bb]/[Bb]/ | [Bb][Bb] [Bb] | [Bg][G,B] [EG]/[EG]/ | %33
 [=EG][FA] [B,F] | [G,E]2 :: [Bb]/[Bb]/ | af B/a/ | [Bg][G,B] [Bb]/[Bb]/ | af B/a/ | %39
 [Bg][G,B] [GB]/[GB]/ | [GB][Ac][Fd] | [Ge]2 [eg]/[eg]/ | ([gb][fa]) [Af] | [Ge]2!D.C.! :| %44
V:2
 z | B,,B,B, | B,,B,B, | B,,B,B, | B,,B, [B,,D,F,B,] | C,[G,B,][G,B,] | C,[F,A,][F,A,] | %7
 [C,F,A,]2 [C,=E,B,] | [F,A,]2 :: z | [F,A,C]2 [F,A,C] | [F,B,D]2 [F,B,] | [=E,G,D]2 [E,G,C] | %13
 [F,A,C]3 | [F,A,C]2 [F,A,C] | [F,B,D]2 z | [C,=E,G,]3 | [F,A,]3 | B,,B,B, | B,,[D,B,][D,B,] | %20
 F,[A,E][A,E] | [B,D]2 [D,,D,] | [E,,E,]3 | ^C,D,G, | F,[A,E][A,E] | [B,D]2 ::[K:Eb] z | E,,E,E, | %28
 E,,E,E, | E,,E,C, | F,2 z | [D,F,B,][D,F,B,][D,F,B,] | [E,,E,]2 z | B,,2 B,, | [E,,E,]2 :: z | %36
 [B,,D,B,]2 [B,,B,] | [E,,E,]2 z | [A,,D,B,]2 [B,,B,] | [E,,E,]2 z | E,,E,E, | [E,,E,]2 z | %42
 [D,B,]2 [B,,B,] | [E,,E,]2 :| %44

